src/img/delete-icon.svg

<?xml version="1.0" encoding="UTF-8" standalone="no"?>
<svg width="20px" height="16px" viewBox="0 0 20 16" version="1.1" xmlns="http://www.w3.org/2000/svg" xmlns:xlink="http://www.w3.org/1999/xlink">
    <!-- Generator: Sketch 48.1 (47250) - http://www.bohemiancoding.com/sketch -->
    <title>Shape</title>
    <desc>Created with Sketch.</desc>
    <defs></defs>
    <g id="Page-1" stroke="none" stroke-width="1" fill="none" fill-rule="evenodd">
        <g id="delete-icon" fill="#FFA300" fill-rule="nonzero">
            <path d="M0.413,8.488 L6.107,14.995 C6.27,15.239 6.514,15.32 6.758,15.32 L17.33,15.32 C18.713,15.32 19.77,14.261 19.77,12.88 L19.77,3.12 C19.77,1.737 18.712,0.679 17.33,0.679 L6.757,0.679 C6.51635352,0.672647241 6.28274732,0.760563555 6.106,0.924 L0.413,7.431 C0.168033607,7.74075396 0.168033607,8.17824604 0.413,8.488 Z M11.313,8 L9.441,6.129 C9.28528546,5.98048341 9.1971747,5.77468409 9.1971747,5.5595 C9.1971747,5.34431591 9.28528546,5.13851659 9.441,4.99 C9.58951659,4.83428546 9.79531591,4.7461747 10.0105,4.7461747 C10.2256841,4.7461747 10.4314834,4.83428546 10.58,4.99 L12.451,6.862 L14.322,4.99 C14.4705166,4.83428546 14.6763159,4.7461747 14.8915,4.7461747 C15.1066841,4.7461747 15.3124834,4.83428546 15.461,4.99 C15.6161896,5.13880447 15.7039316,5.34449632 15.7039316,5.5595 C15.7039316,5.77450368 15.6161896,5.98019553 15.461,6.129 L13.59,8 L15.459,9.87 C15.6149786,10.0183713 15.7032752,10.2242249 15.7032752,10.4395 C15.7032752,10.6547751 15.6149786,10.8606287 15.459,11.009 C15.3058172,11.1569686 15.1037776,11.2437603 14.891,11.253 C14.6782224,11.2437603 14.4761828,11.1569686 14.323,11.009 L12.452,9.139 L10.581,11.009 C10.4272517,11.156724 10.2250018,11.2434533 10.012,11.253 C9.79895662,11.2436351 9.59664522,11.1568794 9.443,11.009 C9.28728546,10.8604834 9.1991747,10.6546841 9.1991747,10.4395 C9.1991747,10.2243159 9.28728546,10.0185166 9.443,9.87 L11.313,8 Z" id="Shape"></path>
        </g>
    </g>
</svg>

<svg width="20" height="16" viewBox="0 0 20 16" xmlns="http://www.w3.org/2000/svg"><title>delete-icon</title><path d="M.413 8.488l5.694 6.507c.163.244.407.325.651.325H17.33c1.383 0 2.44-1.059 2.44-2.44V3.12c0-1.383-1.058-2.441-2.44-2.441H6.757a.923.923 0 0 0-.651.245L.413 7.431a.852.852 0 0 0 0 1.057zM11.313 8L9.441 6.129a.787.787 0 0 1 0-1.139.787.787 0 0 1 1.139 0l1.871 1.872 1.871-1.872a.787.787 0 0 1 1.139 0 .789.789 0 0 1 0 1.139L13.59 8l1.869 1.87a.786.786 0 0 1 0 1.139.872.872 0 0 1-.568.244.872.872 0 0 1-.568-.244l-1.871-1.87-1.871 1.87a.878.878 0 0 1-.569.244.876.876 0 0 1-.569-.244.787.787 0 0 1 0-1.139L11.313 8z" fill="#333" fill-rule="nonzero"/></svg>
